X:1
T:In the Bleak Midwinter
T:In the Bleak Midwinter 
T:Gustav Holst
C:Gustav Holst
%%score 1 2 3 4
L:1/8
Q:1/4=84
M:4/4
K:F
V:1 treble+8 nm="高音直笛"
V:2 treble nm="中音直笛"
V:3 treble nm="次中音直笛"
V:4 bass+8 nm="低音直笛"
V:1
"^Andante"!mp! (A3 B) c2 A2 | G4 F2 z2 | (G3 A) G2 D2 | G6 z2 |!<(! (A3 B) c2 A2!<)! | G4 F2 z2 | %6
!mf!!>(! (G2 A2 G3) F | F6 z2!>)! |!f! B3 A B2 c2 | d2 d2 A2 z2 |!>(! (c2 A2) (G2 F2) | E6 z2!>)! | %12
!mp! (A3 B) c2 A2 | G4 F2 z2 |!>(! (G2 A2 G3) F | F6 z2!>)! | z8 | z8 | z8 | z8 | z8 | z8 | z8 | %23
 z8 |!p!!<(! (B3 A B2) c2 | (d4 A4)!<)! |!>(! (c2 A2 G2 F2 | E6)!>)!!p! (E2 | A3 B c2 A2 | %29
 G4!>(! F4)!>)! |!<(! (G2 A2!<)!!>(! G3 F)!>)! | F6!mf! A2 | (A3 B c2) A2 |[K:F] (G4 F4) | %34
 (G3 A G2) D2 |!<(! G6!f! G2!<)! | (A3 B c2) A2 | G3 (G F4) | %38
!>(! !tenuto!G2 !tenuto!A2 !tenuto!G3 F!>)! |!mp! F8 |!f! (B3!>(! A B2 c2!>)! | d4 A4) | %42
!p!!<(! c2 A2 G2 F2!<)! |!>(! E8!>)! | F3 (F- F2 _E2 | D6) z2 | %46
!p!"^poco rit. . . \n.\n" (G2 A2 G3 F) | F6- F z |!pp!"^a Tempo" (A3 B c2 A2 | G4 F4) | %50
 (G3 A G2 D2 | G6) (G2 | A3 B c2 A2 | G4 F2) (F2 | G2 A2 G3 F | F6) z2 | %56
 z4 z2!mf!!>(! !tenuto!_E2 | D4!>)!!<(! A4 | !tenuto!c2 !tenuto!A2!<)!!f! !tenuto!G2 !tenuto!F2 | %59
!>(! E6!p! E2!>)! | (A3 B c2 A2) | G4"^Rall. . . . . . . . . . . ."!>(! F4!>)! |!ppp! F8- | %63
 !fermata!F8 |] %64
V:2
!mp! (f3 f) f2 c2 | d4 d2 z2 | d3 d d2 c2 | B6 z2 |!<(! (c3 f) f2 c2!<)! | d4 d2 z2 | %6
!mf!!>(! (f2 f2 e3) f | f6 z2!>)! |!f! f3 f f2 _e2 | d2 d2 f2 z2 |!>(! (f2 e2) d4 | c6 z2!>)! | %12
!mp! (c3 f) f2 c2 | d4 d2 z2 |!>(! (f4 e3) f | f6 z2!>)! | z8 | z8 | z8 | z4 z2!p! (e2 | %20
 f6)!<(! (f2 | g2!<)!!>(! a4) B2!>)! | (B2 c2!>(! B3 A)!>)! | A6 z2 |!p! (f4!<(! d2 _e2 | %25
 d4 f4)!<)! |!>(! (f2 e4 d2 | c6)!>)!!pp! c'2- | c'8 |!<(! d'6 (f2!<)! |!>(! f3 d c4)!>)! | c6 z2 | %32
 z!mf! !tenuto!c'(!tenuto!c'b agfe) |[K:F] (ed^ce d3) (a | %34
 b)!tenuto!d'(!tenuto!d'c' b)!tenuto!a(!tenuto!ag) |!<(! (gfga b2 c'2!<)! | %36
 c'4) z!f! !tenuto!f'(!tenuto!f'e') | (e'd'^c'e' d'3) f | %38
!>(! !tenuto!f2 !tenuto!f2 !tenuto!c'3 a!>)! |!mp! a8 |!f!!>(! b8- | b4 (f4-!>)! | %42
!p! f2!<(! e2 d2 c2!<)! |!>(! c8)!>)! |!p!!<(! (a3 b!<)!!>(! c'2 a2)!>)! | g4 f4- | %46
!>(! f4!pp! (e3 c)!>)! | c6- c z | z4 (f4 | e4 _e4) | d8 | (_e4 =e4) | z2 !tenuto!f2 !tenuto!f4 | %53
 !tenuto!_e8 | (d4 e3 f) | f6 z2 | z2!mp!!<(! !tenuto!c'2 !tenuto!b2 !tenuto!a2!<)! | %57
!f!!>(! b4 (f4-!>)! |!<(! f2!f! e'4)!<)! (d'2 |!>(! c'6) z2!>)! |!pp! (c3 f- f2) (c2 | d6) z2 | %62
!p!!<(! (g2 a2)!<)!!>(! (g3 f)!>)! |!pp! !fermata!f8 |] %64
V:3
!mp! (c3 c) c2 F2 | A4 A2 z2 | (G3 D) D2 F2 | (F4 E2) z2 |!<(! (F3 c) c2 F2!<)! | A4 A2 z2 | %6
!mf!!>(! (d2 d2 B3) A | A6 z2!>)! |!f! B3 c B2 A2 | B2 B2 A2 z2 |!>(! (F2 c2) (B2 A2) | G6 z2!>)! | %12
!mp! (F3 c) c2 F2 | A4 A2 z2 |!>(! (d4 B3) A | A6 z2!>)! |!p! (A3 B c2 A2) | (G4 F4) | %18
 (G3 A G2) D2 |!<(! G8!<)! |!mp! (A3 B c2 A2) | G3 (G F4) | G2 A2!>(! G3 F!>)! | F6 z2 | %24
 z2!p! (B4 A2 | B4)!<(! (A2 G2 | F3)!<)!!>(! (c B2 A2 | G6)!>)! z2 | z4!ppp! A4 |!<(! A6 (B2!<)! | %30
!>(! B4 B3 A)!>)! | A6!mp! f2 | (f3 g a2) c2 |[K:F] A8 | B3 c d2 c2 |!<(! f4 e4!<)! | %36
!mf! (c3 g) f2 c2 | (A3 d) (d2 c2) |!>(! !tenuto!d2 !tenuto!d2 !tenuto!e3 f!>)! |!mp! f8 | %40
!f!!>(! (f4 e2 _e2 | d8)!>)! |!p! (c4 B4 | c8) | (A3 c c2 A2 | B6) z2 |!pp! (B4 B3 A) | A6- A z | %48
 z4 A4- | A8 | B6 (c2 | B4 c4) | z2 !tenuto!A2 !tenuto!G4 | !tenuto!F4 !tenuto!A4 | %54
 (B2 c2) (c2 B2) | A6!mf! F2 |!<(! B3 A B2 c2 |!f! d4!<)!!>(! A2!<(! f2-!>)! | %58
 f3!<)!!f! !tenuto!c!>(! !tenuto!B2 !tenuto!A2 | !tenuto!G6!>)! z2 |!pp! (A3 c) (c2 A2) | A6 z2 | %62
 d4 e2 BA | !fermata!A8 |] %64
V:4
!mp! (F,3 G,) A,2 F,2 | D,4 D,2 z2 | (B,,3 C,) B,,2 A,,2 | (G,,4 C,2) z2 | %4
!<(! (F,3 G,) A,2 F,2!<)! | D,4 D,2 D,2 |!mf!!>(! (B,,2 B,,2 C,3) F, | F,6 z2!>)! | %8
!f! D,3 F, D,2 C,2 | B,,2 B,,2 D,2 z2 |!>(! A,,4 B,,4 | C,6 z2!>)! |!mp! (F,3 G,) A,2 F,2 | %13
 D,4 D,2 z2 |!>(! (B,,4 C,3) F, | F,6 z2!>)! |!p! (F,2 G,2 A,3) (F, | E,2 C,2 D,4) | %18
 (C,2 B,,4 A,,2 | G,,4 C,4) | (F,4 A,,4 | D,8) | D,2!>(! B,,4 C,2!>)! | F,6 z2 | %24
!p! D,4!<(! (D,2 C,2) | (B,,4 D,4)!<)! |!>(! (A,,4 B,,4 | C,6)!>)! z2 |!pp! (F,3 G, A,2 F,2) | %29
 D,8 | D,4 (E,3 F,) | F,6!mp! F,2 | (F,2 C,2 A,,2 F,2) |[K:F] D,4 (D,2 C,2) | B,,4 (B,,2 A,,2) | %35
!<(! (G,,4 C,4)!<)! |!mf! (F,3 G, A,2) F,2 | D,3 D, D,4 | %38
!>(! !tenuto!B,,2 !tenuto!B,,2 !tenuto!C,3 F,!>)! |!mp! F,8 |!f!!>(! (D4 ^C2 =C2 | B,4)!>)! z4 | %42
 z8 | z4!p! !tenuto!C,4 | (F,3 G, A,2 F,2 | D,6) z2 |!pp! (B,,4 C,3 F,) | F,6- F, z | %48
 (A,3 B, C2 A,2 | G,4 F,4) | (G,3 A, G,2 D,2 | G,6) (G,2 | A,3 B, C2 A,2 | G,4 F,2) (F,2 | %54
 G,2 A,2 G,3 F, | F,6) z2 | z4!mp!!<(! !tenuto!D,2 !tenuto!C,2!<)! |!f!!>(! B,,4 D,4!>)! | %58
!<(! A,,4!f! B,,4!<)! |!>(! C,6 z2!>)! |!pp! (F,3 G, A,2) (F,2 | D,6) z2 | B,,4 (C,3 F,) | %63
 !fermata!F,8 |] %64

